src/public/images/main-story-background-moblo.svg

<svg width="278" height="207" viewBox="0 0 278 207" fill="none" xmlns="http://www.w3.org/2000/svg">
<path opacity="0.8" d="M219.145 -62.987C225.127 -34.9221 206.457 -4.22482 171.077 22.7296C135.73 49.6581 83.8498 72.7261 23.8139 85.5233C-36.2221 98.3204 -92.9992 98.4135 -136.255 88.2397C-179.552 78.0561 -209.117 57.6405 -215.099 29.5756C-221.081 1.51066 -202.412 -29.1866 -167.031 -56.1411C-131.684 -83.0696 -79.8039 -106.138 -19.768 -118.935C40.268 -131.732 97.0451 -131.825 140.301 -121.651C183.598 -111.468 213.163 -91.0519 219.145 -62.987Z" stroke="#575775"/>
<path opacity="0.8" d="M196.601 -71.527C199.105 -59.7841 195.641 -47.3009 187.136 -34.753C178.629 -22.2037 165.103 -9.62834 147.569 2.25968C112.501 26.0341 61.4896 47.0009 2.84539 59.5014C-55.7988 72.0018 -110.926 73.6595 -152.64 66.2515C-173.499 62.5473 -190.977 56.5809 -203.862 48.5912C-216.745 40.6024 -224.997 30.6165 -227.5 18.8736C-230.004 7.1307 -226.54 -5.35253 -218.035 -17.9004C-209.529 -30.4498 -196.002 -43.0251 -178.468 -54.9131C-143.4 -78.6876 -92.3887 -99.6543 -33.7445 -112.155C24.8998 -124.655 80.0274 -126.313 121.741 -118.905C142.6 -115.201 160.078 -109.234 172.963 -101.245C185.846 -93.2558 194.098 -83.2699 196.601 -71.527Z" stroke="#575775"/>
<path opacity="0.8" d="M174.608 -93.1307C177.113 -81.3806 173.877 -68.9438 165.793 -56.4881C157.707 -44.0301 144.791 -31.5865 128.012 -19.8608C94.4561 3.58955 45.5318 24.1107 -10.807 36.1197C-67.1458 48.1288 -120.186 49.3422 -160.388 41.614C-180.49 37.7497 -197.357 31.6546 -209.82 23.5767C-222.281 15.5002 -230.307 5.46417 -232.812 -6.28594C-235.317 -18.0361 -232.08 -30.4729 -223.996 -42.9285C-215.911 -55.3865 -202.995 -67.8301 -186.216 -79.5559C-152.66 -103.006 -103.736 -123.527 -47.3968 -135.536C8.94196 -147.545 61.9819 -148.759 102.184 -141.031C122.286 -137.166 139.154 -131.071 151.616 -122.993C164.077 -114.917 172.104 -104.881 174.608 -93.1307Z" stroke="#575775"/>
</svg>

<svg xmlns="http://www.w3.org/2000/svg" width="278" height="207" fill="none"><path stroke="#575775" d="M219.145-62.987c5.982 28.065-12.688 58.762-48.068 85.717C135.73 49.658 83.85 72.726 23.814 85.523-36.222 98.32-93 98.413-136.255 88.24c-43.297-10.184-72.862-30.6-78.844-58.664-5.982-28.065 12.687-58.763 48.068-85.717 35.347-26.929 87.227-49.997 147.263-62.794 60.036-12.797 116.813-12.89 160.069-2.716 43.297 10.183 72.862 30.6 78.844 58.664Z" opacity=".8"/><path stroke="#575775" d="M196.601-71.527c2.504 11.743-.96 24.226-9.465 36.774-8.507 12.55-22.033 25.125-39.567 37.013C112.501 26.034 61.489 47 2.845 59.5c-58.644 12.5-113.771 14.158-155.485 6.75-20.859-3.704-38.337-9.67-51.222-17.66-12.883-7.989-21.135-17.975-23.638-29.717-2.504-11.743.96-24.227 9.465-36.774 8.506-12.55 22.033-25.125 39.567-37.013 35.068-23.775 86.08-44.741 144.724-57.242 58.644-12.5 113.771-14.158 155.485-6.75 20.859 3.704 38.337 9.671 51.222 17.66 12.883 7.99 21.135 17.975 23.638 29.718Z" opacity=".8"/><path stroke="#575775" d="M174.608-93.13c2.505 11.75-.731 24.186-8.815 36.642-8.086 12.458-21.002 24.901-37.781 36.627C94.456 3.59 45.532 24.111-10.807 36.12c-56.339 12.01-109.379 13.223-149.581 5.495-20.102-3.864-36.969-9.96-49.432-18.037-12.461-8.077-20.487-18.113-22.992-29.863-2.505-11.75.732-24.187 8.816-36.643 8.085-12.457 21.001-24.901 37.78-36.627 33.556-23.45 82.48-43.971 138.82-55.98 56.338-12.009 109.378-13.223 149.58-5.495 20.102 3.865 36.97 9.96 49.432 18.038 12.461 8.076 20.488 18.112 22.992 29.862Z" opacity=".8"/></svg>
